build/assets/images/content/main_logo.svg

<svg width="36" height="40" viewBox="0 0 36 40" fill="none" xmlns="http://www.w3.org/2000/svg">
<path d="M17.4716 4.26074L15.582 16.8014L21.6965 20.6882L29.6057 17.1723L17.4716 4.26074Z" fill="#5484F7"/>
<path d="M0.125 7.75755L15.582 16.8014L17.4715 4.26074L0.125 7.75755Z" fill="#3E74F4"/>
<path d="M22.8467 9.97989L25.0127 6.25537L29.6059 17.1723L22.8467 9.97989Z" fill="#1448C3"/>
<path d="M33.8215 6.14551L25.0127 6.25523L29.606 17.1722L33.8215 6.14551Z" fill="#3E74F4"/>
<path d="M35.8752 9.16367L33.8215 6.14551L33.0161 8.25199L35.8752 9.16367Z" fill="#1448C3"/>
<path d="M17.7275 0.75L25.0126 6.2553L22.8466 9.97982L17.4717 4.26072L17.7275 0.75Z" fill="#3E74F4"/>
<path d="M0.571289 5.23172L17.7277 0.75L17.4718 4.26072L3.49086 7.07899L0.571289 5.23172Z" fill="#1448C4"/>
<path d="M8.23291 27.0508L16.3257 17.2739L21.6963 20.6882L8.23291 27.0508Z" fill="#1448C3"/>
<path d="M15.6111 39.9372L21.6963 20.688L8.23291 27.0506L15.6111 39.9372Z" fill="#5484F7"/>
</svg>

<svg width="36" height="40" fill="none" xmlns="http://www.w3.org/2000/svg"><path d="M17.472 4.26l-1.89 12.541 6.114 3.887 7.91-3.516L17.472 4.261z" fill="#5484F7"/><path d="M.125 7.758L15.582 16.8l1.89-12.54L.124 7.758z" fill="#3E74F4"/><path d="M22.847 9.98l2.166-3.725 4.593 10.917-6.76-7.192z" fill="#1448C3"/><path d="M33.822 6.146l-8.81.11 4.594 10.916 4.215-11.026z" fill="#3E74F4"/><path d="M35.875 9.164l-2.053-3.018-.806 2.106 2.86.912z" fill="#1448C3"/><path d="M17.727.75l7.286 5.505-2.166 3.725-5.375-5.72.255-3.51z" fill="#3E74F4"/><path d="M.571 5.232L17.728.75l-.256 3.51L3.49 7.08.57 5.232z" fill="#1448C4"/><path d="M8.233 27.05l8.093-9.776 5.37 3.414-13.463 6.363z" fill="#1448C3"/><path d="M15.611 39.937l6.085-19.249-13.463 6.363 7.378 12.886z" fill="#5484F7"/></svg>
